Yaru++/emotes/16/face-angry.svg

<svg height="16" width="16" xmlns="http://www.w3.org/2000/svg"><g stroke-width="1.142857"><path d="m8 0a8 8 0 1 0 0 16 8 8 0 0 0 0-16zm-4.5714286 4.7142857s.5417143.9588572 1.4285715.9645714h2v1.1782858c0 .6354285-.7622858 1.1428571-1.7142858 1.1428571s-1.7142857-.5074286-1.7142857-1.1428571zm9.1428576 0v2.1428572c0 .6354285-.762286 1.1428571-1.714286 1.1428571s-1.714286-.5074286-1.714286-1.1428571v-1.1782858h1.964572c.886857-.00571 1.464-.9645714 1.464-.9645714zm-4.5360004 4.4285714c3.7211424 0 3.4285714.4388572 3.4285714.8708569v.304h-6.8925714v-.3291426c0-.4-.2571429-.8457143 3.464-.8457143z" fill="#bc1938"/><path d="m8 0a8 8 0 0 0 -7.9866071 8.3482143 8 8 0 0 1 7.9866071-7.77678573 8 8 0 0 1 7.986607 7.65178573 8 8 0 0 0 -7.986607-8.2232143zm-4.5714286 6.8571429v.5714285c0 .6354286.7622857 1.1428572 1.7142857 1.1428572s1.7142858-.5074286 1.7142858-1.1428572v-.5714285c0 .6354285-.7622858 1.1428571-1.7142858 1.1428571s-1.7142857-.5074286-1.7142857-1.1428571zm5.7142856 0v.5714285c0 .6354286.762286 1.1428572 1.714286 1.1428572s1.714286-.5074286 1.714286-1.1428572v-.5714285c0 .6354285-.762286 1.1428571-1.714286 1.1428571s-1.714286-.5074286-1.714286-1.1428571zm-4.5580355 3.4598221c-.013864.08041-.013393.162582-.013393.243302v.328126h6.8928575v-.303571c0-.09127.0033-.180183-.01116-.267857z" fill="#e3e3e3" opacity=".3"/><path d="m3.4285714 4.1428571v.5714286s.5417143.9585714 1.4285715.9642857h2v-.5714285h-2c-.8868572-.0057143-1.4285715-.9642858-1.4285715-.9642858zm9.1428576 0s-.577429.9585715-1.464286.9642858h-1.964286v.5714285h1.964286c.886857-.0057143 1.464286-.9642857 1.464286-.9642857zm3.415178 3.5089286a8 8 0 0 1 -7.986607 7.7767853 8 8 0 0 1 -7.9866071-7.6517853 8 8 0 0 0 7.9866071 8.2232143 8 8 0 0 0 7.986607-8.3482143zm-7.9508927.9196429c-3.7211429 0-3.4642857.4459821-3.4642857.8459821v.3281251h.013393c.054836-.3180323.4806826-.6026787 3.4508928-.6026787 2.9350056 0 3.3633196.2753491 3.4174106.6026787h.01116v-.3035715c0-.4320001.292571-.8705357-3.4285707-.8705357z" fill="#060001" opacity=".2"/></g></svg>

<?xml version="1.0" encoding="UTF-8" standalone="no"?>
<svg
   xmlns:dc="http://purl.org/dc/elements/1.1/"
   xmlns:cc="http://creativecommons.org/ns#"
   xmlns:rdf="http://www.w3.org/1999/02/22-rdf-syntax-ns#"
   xmlns:svg="http://www.w3.org/2000/svg"
   xmlns="http://www.w3.org/2000/svg"
   xmlns:sodipodi="http://sodipodi.sourceforge.net/DTD/sodipodi-0.dtd"
   xmlns:inkscape="http://www.inkscape.org/namespaces/inkscape"
   width="16"
   height="16"
   version="1.1"
   id="svg4"
   sodipodi:docname="face-angry.svg"
   inkscape:version="0.92.4 (5da689c313, 2019-01-14)">
  <metadata
     id="metadata10">
    <rdf:RDF>
      <cc:Work
         rdf:about="">
        <dc:format>image/svg+xml</dc:format>
        <dc:type
           rdf:resource="http://purl.org/dc/dcmitype/StillImage" />
      </cc:Work>
    </rdf:RDF>
  </metadata>
  <defs
     id="defs8" />
  <sodipodi:namedview
     pagecolor="#ffffff"
     bordercolor="#666666"
     borderopacity="1"
     objecttolerance="10"
     gridtolerance="10"
     guidetolerance="10"
     inkscape:pageopacity="0"
     inkscape:pageshadow="2"
     inkscape:window-width="1920"
     inkscape:window-height="1016"
     id="namedview6"
     showgrid="false"
     inkscape:zoom="59.928571"
     inkscape:cx="4.829559"
     inkscape:cy="8"
     inkscape:window-x="0"
     inkscape:window-y="27"
     inkscape:window-maximized="1"
     inkscape:current-layer="svg4" />
  <path
     d="M 8,0 A 8,8 0 1 0 8,16 8,8 0 0 0 8,0 Z M 3.4285714,4.7142857 c 0,0 0.5417143,0.9588572 1.4285715,0.9645714 h 2 V 6.8571429 C 6.8571429,7.4925714 6.0948571,8 5.1428571,8 4.1908571,8 3.4285714,7.4925714 3.4285714,6.8571429 Z m 9.1428576,0 V 6.8571429 C 12.571429,7.4925714 11.809143,8 10.857143,8 9.905143,8 9.142857,7.4925714 9.142857,6.8571429 V 5.6788571 h 1.964572 c 0.886857,-0.00571 1.464,-0.9645714 1.464,-0.9645714 z M 8.0354286,9.1428571 c 3.7211424,0 3.4285714,0.4388572 3.4285714,0.8708569 v 0.304 H 4.5714286 V 9.9885714 c 0,-0.4 -0.2571429,-0.8457143 3.464,-0.8457143 z"
     id="path2"
     style="fill:#bc1938;fill-opacity:1;stroke-width:1.14285719"
     inkscape:connector-curvature="0" />
  <path
     style="opacity:0.3;fill:#e3e3e3;fill-opacity:1;stroke-width:1.14285719"
     d="M 8,0 A 8,8 0 0 0 0.0133929,8.3482143 8,8 0 0 1 8,0.57142857 8,8 0 0 1 15.986607,8.2232143 8,8 0 0 0 8,0 Z M 3.4285714,6.8571429 v 0.5714285 c 0,0.6354286 0.7622857,1.1428572 1.7142857,1.1428572 0.952,0 1.7142858,-0.5074286 1.7142858,-1.1428572 V 6.8571429 C 6.8571429,7.4925714 6.0948571,8 5.1428571,8 4.1908571,8 3.4285714,7.4925714 3.4285714,6.8571429 Z m 5.7142856,0 v 0.5714285 c 0,0.6354286 0.762286,1.1428572 1.714286,1.1428572 0.952,0 1.714286,-0.5074286 1.714286,-1.1428572 V 6.8571429 C 12.571429,7.4925714 11.809143,8 10.857143,8 9.905143,8 9.142857,7.4925714 9.142857,6.8571429 Z M 4.5848215,10.316965 c -0.013864,0.08041 -0.013393,0.162582 -0.013393,0.243302 v 0.328126 h 6.8928575 v -0.303571 c 0,-0.09127 0.0033,-0.180183 -0.01116,-0.267857 z"
     id="path823"
     inkscape:connector-curvature="0" />
  <path
     style="opacity:0.2;fill:#060001;fill-opacity:1;stroke-width:1.14285719"
     d="m 3.4285714,4.1428571 v 0.5714286 c 0,0 0.5417143,0.9585714 1.4285715,0.9642857 h 2 V 5.1071429 h -2 C 3.9702857,5.1014286 3.4285714,4.1428571 3.4285714,4.1428571 Z m 9.1428576,0 c 0,0 -0.577429,0.9585715 -1.464286,0.9642858 H 9.142857 v 0.5714285 h 1.964286 C 11.994,5.6728571 12.571429,4.7142857 12.571429,4.7142857 Z m 3.415178,3.5089286 A 8,8 0 0 1 8,15.428571 8,8 0 0 1 0.0133929,7.7767857 8,8 0 0 0 8,16 8,8 0 0 0 15.986607,7.6517857 Z M 8.0357143,8.5714286 c -3.7211429,0 -3.4642857,0.4459821 -3.4642857,0.8459821 v 0.3281251 h 0.013393 c 0.054836,-0.3180323 0.4806826,-0.6026787 3.4508928,-0.6026787 2.9350056,0 3.3633196,0.2753491 3.4174106,0.6026787 h 0.01116 V 9.4419643 c 0,-0.4320001 0.292571,-0.8705357 -3.4285707,-0.8705357 z"
     id="path828"
     inkscape:connector-curvature="0" />
</svg>
